svg/OSM-icons/shop #ac39ac °ffffff !label=enshops,deLäden/29021;shop=car_parts;!name=;!brand=;feature_group=car;[shop];!label=encar parts,deAutoteile.svg

<svg xmlns="http://www.w3.org/2000/svg" viewBox="0 0 580 580" enable-background="new 0 0 580 580"><path fill="#111" stroke="#eee" stroke-width="3.408" d="m66.28 1.768c-41.34 0-64.57 21.371-64.57 65.04v450.12c0 40.844 20.895 62.23 62.19 62.23h452.02c41.31 0 62.23-20.315 62.23-62.23v-450.12c0-42.601-20.923-65.04-63.52-65.04-.004 0-448.5-.143-448.35 0z"/><g fill="#fff"><path d="m447.96 52.684h-54.41l-27.2 47.12 27.2 47.12h54.41l27.2-47.12-27.2-47.12m-27.2 72.62c-14.08 0-25.5-11.417-25.5-25.5s11.417-25.5 25.5-25.5 25.5 11.417 25.5 25.5-11.417 25.5-25.5 25.5"/><path d="m447.96 433.08h-54.41l-27.2 47.12 27.2 47.12h54.41l27.2-47.12-27.2-47.12m-27.2 72.62c-14.08 0-25.5-11.417-25.5-25.5s11.417-25.5 25.5-25.5 25.5 11.417 25.5 25.5-11.417 25.5-25.5 25.5"/><path d="m554.7 262.49l-47.3-26.893-46.937 27.513.358 54.41 47.3 26.892 46.937-27.513-.358-54.41m-46.768 53.01c-14.08.092-25.574-11.249-25.667-25.332-.093-14.08 11.249-25.574 25.331-25.667 14.08-.093 25.575 11.249 25.668 25.331.093 14.08-11.249 25.574-25.332 25.668"/><path d="m136.4 115.54c-23.975 0-36.693 13.09-42.564 28.409l-31.17 80.48c-12.355 1.584-34.26 16.09-34.26 43.561v102.34h30.337v32.729c0 40.27 56.985 39.793 56.985 0v-32.729h102.51.033 102.51v32.729c0 39.793 56.984 40.27 56.986 0v-32.729h30.336v-102.34c0-27.474-21.902-41.977-34.26-43.561l-31.2-80.48c-5.872-15.321-18.589-28.409-42.565-28.409h-44.06-75.03-44.592m-.365 29.31h82.14.066.033 82.17c10.274.096 14.674 6.521 17.61 15.417l23.492 63.33h-123.27-.033-.066-123.24l23.492-63.33c2.935-8.896 7.335-15.322 17.61-15.417m-47.881 109.55c14.539 0 26.316 12.13 26.316 27.12 0 14.984-11.778 27.15-26.316 27.15-14.537 0-26.316-12.162-26.316-27.15 0-14.984 11.779-27.12 26.316-27.12m260.21 0c14.537 0 26.315 12.13 26.315 27.12 0 14.984-11.778 27.15-26.315 27.15-14.538 0-26.351-12.162-26.351-27.15.0001-14.984 11.813-27.12 26.351-27.12"/></g></svg>

<?xml version="1.0" encoding="utf-8"?>
<!-- Generator: Adobe Illustrator 15.0.0, SVG Export Plug-In . SVG Version: 6.00 Build 0)  -->
<!DOCTYPE svg PUBLIC "-//W3C//DTD SVG 1.1//EN" "http://www.w3.org/Graphics/SVG/1.1/DTD/svg11.dtd">
<svg version="1.1" xmlns="http://www.w3.org/2000/svg" xmlns:xlink="http://www.w3.org/1999/xlink" x="0px" y="0px" width="580px"
	 height="580px" viewBox="0 0 580 580" enable-background="new 0 0 580 580" xml:space="preserve">
<g id="Layer_2">
	<g id="g1327">
		<path id="path1329" fill="#111111" stroke="#EEEEEE" stroke-width="3.408" d="M66.275,1.768
			c-41.335,0-64.571,21.371-64.571,65.036v450.123c0,40.844,20.895,62.229,62.192,62.229H515.92
			c41.307,0,62.229-20.315,62.229-62.229V66.804c0-42.601-20.923-65.036-63.521-65.036C514.624,1.768,66.133,1.625,66.275,1.768z"/>
	</g>
</g>
<g id="svg2" sodipodi:version="0.32" inkscape:version="0.46" sodipodi:docbase="s:\Data\FacilityIcons" sodipodi:docname="amenity_atm.svg" inkscape:output_extension="org.inkscape.output.svg.inkscape" xmlns:cc="http://creativecommons.org/ns#" xmlns:dc="http://purl.org/dc/elements/1.1/" xmlns:inkscape="http://www.inkscape.org/namespaces/inkscape" xmlns:sodipodi="http://sodipodi.sourceforge.net/DTD/sodipodi-0.dtd" xmlns:svg="http://www.w3.org/2000/svg" xmlns:rdf="http://www.w3.org/1999/02/22-rdf-syntax-ns#" display="none">
	
		<sodipodi:namedview  id="base" bordercolor="#666666" pagecolor="#ffffff" inkscape:zoom="1.3034483" inkscape:cx="285.84646" inkscape:cy="302.63451" showgrid="false" guidetolerance="10.0" gridtolerance="10.0" objecttolerance="10.0" borderopacity="1.0" inkscape:window-height="1005" inkscape:pageshadow="2" inkscape:pageopacity="0.0" inkscape:window-width="1280" inkscape:window-x="0" inkscape:window-y="0" inkscape:current-layer="svg2">
		</sodipodi:namedview>
	<defs  display="inline">
		
		
			<inkscape:perspective  id="perspective2441" sodipodi:type="inkscape:persp3d" inkscape:vp_x="0 : 290 : 1" inkscape:vp_y="0 : 1000 : 0" inkscape:vp_z="580 : 290 : 1" inkscape:persp3d-origin="290 : 193.33333 : 1">
			</inkscape:perspective>
	</defs>
	
		<path id="rect3241" sodipodi:nodetypes="ccccccccc" display="inline" opacity="0.75" fill="#FFFFFF" stroke="#FFFFFF" stroke-width="35.845" stroke-linecap="round" stroke-linejoin="round" enable-background="new    " d="
		M103.979,82.413v62.924h112.403c7.778-20.622,12.715-34.171,13.042-36.067l190.991-1.647l14.588,37.714h69.613V82.413H103.979z"/>
	
		<path id="path2443" sodipodi:nodetypes="ccccccc" display="inline" fill="none" stroke="#FFFFFF" stroke-width="20" stroke-linejoin="round" d="
		M227.906,158.094l-40.375,0.375c-1.603,9.296-122.313,358.625-122.313,358.625l403.813-3.406l-15.594-40.313l-333.094,2.844
		C120.344,476.219,195.438,243.832,227.906,158.094z"/>
	
		<path id="path3243" sodipodi:nodetypes="ccccc" display="inline" fill="none" stroke="#FFFFFF" stroke-width="20" stroke-linejoin="round" d="
		M242.694,117.588c-1.603,9.296-122.338,358.618-122.338,358.618l403.838-3.412L401.652,116.069L242.694,117.588z"/>
	
		<path id="path3163" sodipodi:nodetypes="ccccc" display="inline" opacity="0.1" fill="#FFFFFF" stroke="#FFFFFF" stroke-width="20" stroke-linecap="round" stroke-linejoin="round" enable-background="new    " d="
		M242.694,117.588c-1.603,9.296-122.338,358.618-122.338,358.618l403.838-3.412L401.652,116.069L242.694,117.588z"/>
	
		<path id="path3165" sodipodi:nodetypes="ccccccc" display="inline" opacity="0.1" fill="#FFFFFF" stroke="#FFFFFF" stroke-width="20" stroke-linecap="round" stroke-linejoin="round" enable-background="new    " d="
		M227.906,158.094l-40.375,0.375c-1.603,9.296-122.313,358.625-122.313,358.625l403.813-3.406l-15.594-40.313l-333.094,2.844
		C120.344,476.219,195.438,243.832,227.906,158.094z"/>
	<g id="g4372" transform="translate(-130.0802,122.26983)" display="inline">
	</g>
	<g id="g4998" transform="translate(-133.14896,123.86039)" display="inline">
		<g id="g5004">
			<path id="text2413" fill="#FFFFFF" d="M465.402,153.84c0.229,0.097,1.086,0.291,2.572,0.581
				c23.434,3.872,41.037,10.938,52.811,21.199c11.773,10.26,17.661,23.715,17.661,40.364c0,17.036-6.459,31.798-19.376,44.285
				c-12.917,12.487-30.807,19.263-53.669,20.327v26.426h-18.347v-26.135c-23.32-2.227-41.209-8.64-53.669-19.238
				c-12.46-10.6-19.49-25.434-21.09-44.504l30.864-4.646c2.4,14.326,7.259,25.36,14.575,33.104
				c7.315,7.744,17.089,12.148,29.321,13.213V175.62c-23.205-4.26-40.581-11.374-52.126-21.344
				c-11.545-9.97-17.318-22.795-17.318-38.477c0-15.584,5.716-28.966,17.147-40.146s28.863-17.641,52.297-19.384V43.782h18.347
				v12.487c19.433,1.646,34.75,6.873,45.953,15.681c11.202,8.809,18.232,21.15,21.091,37.025l-32.064,3.92
				c-1.829-9.873-5.659-17.689-11.488-23.449c-5.83-5.759-13.66-9.462-23.491-11.107V153.84z M447.055,150.646V78.048
				c-12.46,1.839-22.006,6.074-28.635,12.705c-6.63,6.631-9.945,14.302-9.945,23.014c0,9.971,3.429,17.835,10.288,23.595
				C425.622,143.12,435.052,147.549,447.055,150.646L447.055,150.646z M465.402,258.817c12.003-1.549,21.891-5.977,29.664-13.285
				c7.772-7.309,11.659-16.528,11.659-27.66c0-9.776-2.943-17.641-8.83-23.594c-5.888-5.953-16.719-11.012-32.493-15.174V258.817z"
				/>
		</g>
		
			<path id="path4370" sodipodi:nodetypes="cc" fill="none" stroke="#FFFFFF" stroke-width="30" stroke-linecap="round" stroke-linejoin="round" d="
			M455.376,43.427v265.043"/>
	</g>
</g>
<g id="Layer_4">
	<g>
		<path fill="#FFFFFF" d="M447.964,52.684h-54.406L366.354,99.8l27.203,47.117h54.406L475.167,99.8L447.964,52.684z M420.761,125.3
			c-14.083,0-25.5-11.417-25.5-25.5s11.417-25.5,25.5-25.5s25.5,11.417,25.5,25.5S434.844,125.3,420.761,125.3z"/>
		<path fill="#FFFFFF" d="M447.964,433.082h-54.406l-27.203,47.117l27.203,47.117h54.406l27.203-47.117L447.964,433.082z
			 M420.761,505.699c-14.083,0-25.5-11.417-25.5-25.5s11.417-25.5,25.5-25.5s25.5,11.417,25.5,25.5S434.844,505.699,420.761,505.699
			z"/>
	</g>
	<path fill="#FFFFFF" d="M554.697,262.487l-47.295-26.893l-46.937,27.513l0.358,54.406l47.295,26.892l46.937-27.513L554.697,262.487
		z M507.929,315.5c-14.083,0.092-25.574-11.249-25.667-25.332c-0.093-14.082,11.249-25.574,25.331-25.667
		c14.083-0.093,25.575,11.249,25.668,25.331C533.354,303.915,522.012,315.406,507.929,315.5z"/>
	<path id="path2323" fill="#FFFFFF" d="M136.396,115.541c-23.975,0-36.693,13.088-42.564,28.409l-31.167,80.478
		c-12.355,1.584-34.258,16.087-34.258,43.561V370.33h30.337v32.729c0,40.268,56.985,39.793,56.985,0V370.33h102.507h0.033h102.507
		v32.729c0,39.793,56.984,40.268,56.986,0V370.33h30.336V267.989c0-27.474-21.902-41.977-34.257-43.561l-31.201-80.478
		c-5.872-15.321-18.589-28.409-42.565-28.409h-44.059h-75.028H136.396z M136.031,144.848h82.139h0.066h0.033h82.172
		c10.274,0.096,14.674,6.521,17.61,15.417l23.492,63.332H218.27h-0.033h-0.066H94.929l23.492-63.332
		C121.356,151.369,125.756,144.943,136.031,144.848z M88.15,254.399c14.539,0,26.316,12.131,26.316,27.115
		c0,14.984-11.778,27.146-26.316,27.146c-14.537,0-26.316-12.162-26.316-27.146C61.834,266.53,73.613,254.399,88.15,254.399z
		 M348.356,254.399c14.537,0,26.315,12.131,26.315,27.115c0,14.984-11.778,27.146-26.315,27.146
		c-14.538,0-26.351-12.162-26.351-27.146C322.006,266.53,333.818,254.399,348.356,254.399z"/>
</g>
</svg>
